**kern	**kern	**dynam
*part1	*part1	*part1
*staff2	*staff1	*
*I"Piano	*	*
*clefF4	*clefG2	*
*k[f#c#g#]	*k[f#c#g#]	*
*M3/4	*M3/4	*
=1	=1	=1
*	*^	*
2.AA 2.E	2cc#	4r	mf
.	.	4c#: 4e: 4a:	.
.	4cc#	4c#: 4e: 4a:	.
=	=	=	=
2.AA#X 2.E	4cc#	4r	<
.	4.b#X	4c#: 4e: 4f##X:	.
.	.	4c#: 4e: 4f##:	.
.	8cc#	.	.
=	=	=	=
2.BB 2.E	2.ee	4r	[
.	.	4d: 4e: 4g#:	.
.	.	4d: 4e: 4g#:	.
=	=	=	=
2.EE: 2.G#:	2.g#	4r	>
.	.	4d: 4e:	.
.	.	4d: 4e:	.
=	=	=	=
4F#	4f#	4r	]
4G#	4g#	4d: 4e:	<
4c#	4cc#	4d: 4e: 4g#:	.
=	=	=	=
4B	4b	4r	[
4F#	4f#	4d:	.
4E 4G#	4cc#	4d: 4e: 4g#:	.
*	*v	*v	*
=	=	=
4AA	4c#: 4e: 4a:	>
4r	4E: 4A: 4c#:	.
4r	4E: 4A: 4c#:	.
=	=	=
*-	*-	*-
!!!system-decoration: {(s1,s2)}
